X:100
T:Gan Ainm
R:Reel
S:Maire O'Keeffe, Kerry (fiddle)
D:Session tape - Milltown Malbay 1991
H:Played with 101 and 102, which makes a nice set.
Z:Bernie Stocks
M:4/4
K:D
B2ed BcdA | ~B2AF EFGA | B2ed BcdA | ~B2AF DEFA :| B2ec d2fd | edBc dBAd |
B2ec d2fd | edBc d2BA | B2ec d2fd | edBc dBA2 | g3e f3e | dBAF EFGA ||
<end>
<start>
